X: 30162
T: POINT SHIRLY WALTZ
C:
%R: waltz
B: Elias Howe "The Musician's Companion" Part 3 1844 p.16 #2
S: http://imslp.org/wiki/The_Musician's_Companion_(Howe,_Elias)
S: https://archive.org/stream/firstthirdpartof03howe/#page/66/mode/1up
Z: 2016 John Chambers <jc:trillian.mit.edu>
M: 3/8
L: 1/16
K: C
% - - - - - - - - - - - - - - - - - - - - - - - - -
ef |\
g2gagf | e2efed | c2G2c2 | c4 ef |\
g2gage | c'2g2f2 | e2gfef | d4 ef |\
g2gagf | e2efed | c2G2c2 | c4 g2 |\
a2c'agf | e2c'2e2 | d2g2^f2 | g4 :|
|: G2 |\
G2d2e2 | f2e2d2 | c2e2ge | f2e2d2 |\
G2d2f2 | e2d2c2 | g2g2g2 | g4 G2 |\
G2d2e2 | f2e2d2 | cegege | f2e2d2 |\
c2c'agf | e2c'2e2 | d2dcde | c4 :|
% - - - - - - - - - - - - - - - - - - - - - - - - -

